svg/600/outlined/visibility-fill.svg

<svg xmlns="http://www.w3.org/2000/svg" width="48" height="48" viewBox="0 -960 960 960"><path d="M480.118-330Q551-330 600.5-379.618q49.5-49.617 49.5-120.5Q650-571 600.382-620.5q-49.617-49.5-120.5-49.5Q409-670 359.5-620.382q-49.5 49.617-49.5 120.5Q310-429 359.618-379.5q49.617 49.5 120.5 49.5Zm-.22-67.044q-42.941 0-72.898-30.059-29.956-30.058-29.956-72.999 0-42.941 30.059-72.898 30.058-29.956 72.999-29.956 42.941 0 72.898 30.059 29.956 30.058 29.956 72.999 0 42.941-30.059 72.898-30.058 29.956-72.999 29.956ZM480-186.999q-150.522 0-271.913-86.957Q86.695-360.913 26.999-500q59.696-139.087 181.088-226.044Q329.478-813.001 480-813.001t271.913 86.957Q873.305-639.087 933.001-500q-59.696 139.087-181.088 226.044Q630.522-186.999 480-186.999Z"/></svg>

<svg xmlns="http://www.w3.org/2000/svg" width="48" height="48" viewBox="0 -960 960 960"><path d="M480.12-330q70.88 0 120.38-49.62t49.5-120.5q0-70.88-49.62-120.38T479.88-670Q409-670 359.5-620.38T310-499.88q0 70.88 49.62 120.38t120.5 49.5Zm-.22-67.04q-42.94 0-72.9-30.06-29.96-30.06-29.96-73T407.1-573q30.06-29.96 73-29.96T553-572.9q29.96 30.06 29.96 73T552.9-427q-30.06 29.96-73 29.96ZM480-187q-150.52 0-271.91-86.96Q86.7-360.91 27-500q59.7-139.09 181.09-226.04Q329.48-813 480-813q150.52 0 271.91 86.96Q873.3-639.09 933-500q-59.7 139.09-181.09 226.04Q630.52-187 480-187Z"/></svg>
